assets/img/services-list-item-1.svg

<svg xmlns="http://www.w3.org/2000/svg" width="32" height="32"><path fill-rule="evenodd" fill="#666D89" d="M29.396 2.58C27.75.938 25.585 0 23.449 0c-1.8 0-3.459.668-4.669 1.877l-4.867 4.904c-.015.014-.032.024-.047.038-.008.008-.012.019-.02.027l.002.002-10.33 10.408a4.013 4.013 0 00-1.013 1.705L.156 27.469C.153 27.492 0 28.161 0 28.5 0 30.433 1.569 32 3.505 32c.385 0 1.13-.183 1.157-.187l8.478-2.229a4.027 4.027 0 001.705-1.016l15.262-15.382c2.777-2.78 2.464-7.436-.711-10.606zM16.015 23.796a8.144 8.144 0 00-.719-2.628l9.454-9.453c.578 1.826.282 3.736-.985 5.004-.008.008-.018.012-.026.02l.013.013-7.728 7.789c.001-.248.013-.492-.009-.745zm-1.221-3.54c-.373-.613-.797-1.204-1.322-1.728-.612-.612-1.313-1.09-2.044-1.493l9.532-9.531a6.965 6.965 0 012.098 1.437 6.99 6.99 0 011.28 1.771l-9.544 9.544zm-4.308-3.693a7.972 7.972 0 00-2.868-.599l7.703-7.762c1.179-1.15 2.897-1.481 4.588-1.061l-9.423 9.422zm-6.318 13.31c-.109.026-.448.112-.679.127A1.505 1.505 0 012 28.5c.012-.167.079-.456.102-.563l1.052-3.814c1.143-.031 2.373.414 3.34 1.383.983.981 1.445 2.235 1.394 3.391l-3.72.976zm4.706-1.236c-.024-1.341-.57-2.737-1.672-3.837-1.042-1.044-2.405-1.646-3.765-1.699l.996-3.608c.072-.24.214-.476.39-.684 2.006-1.436 5.091-1.012 7.235 1.133 2.266 2.266 2.617 5.586.871 7.568-.116.06-.234.119-.36.157l-3.695.97zm19.818-16.864l-1.684 1.697c0-.226.027-.443.007-.674-.176-1.935-1.079-3.806-2.543-5.269-1.629-1.629-3.79-2.565-5.929-2.571l1.657-1.67C21.027 2.459 22.184 2 23.449 2c1.611 0 3.263.728 4.533 1.995 1.194 1.191 1.906 2.671 2.006 4.168.094 1.398-.366 2.679-1.296 3.61z"/></svg>

<svg 
 xmlns="http://www.w3.org/2000/svg"
 xmlns:xlink="http://www.w3.org/1999/xlink"
 width="32px" height="32px">
<path fill-rule="evenodd"  fill="rgb(102, 109, 137)"
 d="M29.396,2.580 C27.750,0.938 25.585,0.000 23.449,0.000 C21.649,0.000 19.990,0.668 18.780,1.877 L13.913,6.781 C13.898,6.795 13.881,6.805 13.866,6.819 C13.858,6.827 13.854,6.838 13.846,6.846 L13.848,6.848 L3.518,17.256 C3.042,17.728 2.696,18.319 2.505,18.961 L0.156,27.469 C0.153,27.492 0.000,28.161 0.000,28.500 C0.000,30.433 1.569,32.000 3.505,32.000 C3.890,32.000 4.635,31.817 4.662,31.813 L13.140,29.584 C13.783,29.393 14.369,29.045 14.845,28.568 L30.107,13.186 C32.884,10.406 32.571,5.750 29.396,2.580 ZM16.015,23.796 C15.933,22.893 15.678,22.008 15.296,21.168 L24.750,11.715 C25.328,13.541 25.032,15.451 23.765,16.719 C23.757,16.727 23.747,16.731 23.739,16.739 L23.752,16.752 L16.024,24.541 C16.025,24.293 16.037,24.049 16.015,23.796 ZM14.794,20.256 C14.421,19.643 13.997,19.052 13.472,18.528 C12.860,17.916 12.159,17.438 11.428,17.035 L20.960,7.504 C21.707,7.836 22.425,8.309 23.058,8.941 C23.598,9.481 24.017,10.084 24.338,10.712 L14.794,20.256 ZM10.486,16.563 C9.561,16.190 8.590,15.977 7.618,15.964 L15.321,8.202 C16.500,7.052 18.218,6.721 19.909,7.141 L10.486,16.563 ZM4.168,29.873 C4.059,29.899 3.720,29.985 3.489,30.000 C2.667,29.991 2.000,29.322 2.000,28.500 C2.012,28.333 2.079,28.044 2.102,27.937 L3.154,24.123 C4.297,24.092 5.527,24.537 6.494,25.506 C7.477,26.487 7.939,27.741 7.888,28.897 L4.168,29.873 ZM8.874,28.637 C8.850,27.296 8.304,25.900 7.202,24.800 C6.160,23.756 4.797,23.154 3.437,23.101 L4.433,19.493 C4.505,19.253 4.647,19.017 4.823,18.809 C6.829,17.373 9.914,17.797 12.058,19.942 C14.324,22.208 14.675,25.528 12.929,27.510 C12.813,27.570 12.695,27.629 12.569,27.667 L8.874,28.637 ZM28.692,11.773 L27.008,13.470 C27.008,13.244 27.035,13.027 27.015,12.796 C26.839,10.861 25.936,8.990 24.472,7.527 C22.843,5.898 20.682,4.962 18.543,4.956 L20.200,3.286 C21.027,2.459 22.184,2.000 23.449,2.000 C25.060,2.000 26.712,2.728 27.982,3.995 C29.176,5.186 29.888,6.666 29.988,8.163 C30.082,9.561 29.622,10.842 28.692,11.773 Z"/>
</svg>
